src/assets/icons/email_logo.svg

<?xml version="1.0" encoding="UTF-8" standalone="no"?>
<svg
   version="1.1"
   x="0px"
   y="0px"
   viewBox="0 0 85.000004 85.000001"
   enable-background="new 0 0 85.812 85.812"
   xml:space="preserve"
   id="svg2"
   sodipodi:docname="email_logo.svg"
   width="85"
   height="85"
   inkscape:version="1.3.2 (091e20e, 2023-11-25, custom)"
   xmlns:inkscape="http://www.inkscape.org/namespaces/inkscape"
   xmlns:sodipodi="http://sodipodi.sourceforge.net/DTD/sodipodi-0.dtd"
   xmlns="http://www.w3.org/2000/svg"
   xmlns:svg="http://www.w3.org/2000/svg"><defs
     id="defs2" /><sodipodi:namedview
     id="namedview2"
     pagecolor="#505050"
     bordercolor="#eeeeee"
     borderopacity="1"
     inkscape:showpageshadow="0"
     inkscape:pageopacity="0"
     inkscape:pagecheckerboard="0"
     inkscape:deskcolor="#505050"
     inkscape:zoom="4"
     inkscape:cx="-32.125"
     inkscape:cy="-4.375"
     inkscape:window-width="1920"
     inkscape:window-height="1009"
     inkscape:window-x="-8"
     inkscape:window-y="-8"
     inkscape:window-maximized="1"
     inkscape:current-layer="svg2" /><path
     d="m 42.502502,0.2068459 c 23.195637,0 42.000157,18.8689331 42.000157,42.1440231 0,23.275091 -18.80452,42.144026 -42.000157,42.144026 -23.196687,0 -42.00015691,-18.868935 -42.00015691,-42.144026 0,-23.27509 18.80346991,-42.1440231 42.00015691,-42.1440231 z M 67.773996,56.236274 67.760347,29.125021 51.663787,40.241562 Z m -18.759369,-14.50176 -5.728822,3.851963 c -0.2436,0.159094 -0.526052,0.241276 -0.802203,0.241276 -0.279301,0 -0.556502,-0.08113 -0.800102,-0.240222 L 35.819227,41.620726 19.222865,58.096932 H 65.809439 Z M 33.32442,39.931804 17.267758,29.069181 v 27.067 z m 9.158132,2.666662 23.322686,-15.720775 H 19.261715 Z"
     id="path1"
     style="stroke-width:0.999999;fill:#dfff60;fill-opacity:1" /></svg>

<svg xml:space="preserve" width="85" height="85" xmlns="http://www.w3.org/2000/svg"><path d="M42.503.207c23.195 0 42 18.869 42 42.144s-18.805 42.144-42 42.144c-23.197 0-42-18.869-42-42.144S19.305.207 42.502.207zm25.271 56.03-.014-27.112-16.096 11.117zm-18.76-14.502-5.728 3.851c-.244.16-.526.242-.802.242a1.46 1.46 0 0 1-.8-.24l-5.865-3.967-16.596 16.476h46.586zm-15.69-1.803L17.268 29.069v27.067zm9.159 2.666 23.322-15.72H19.262z" style="stroke-width:.999999;fill:#dfff60;fill-opacity:1"/></svg>
